X: 15105
T: Ghoid Iad Mo Bhean Uam An Reir
R: strathspey
M: 4/4
K: Aminor
|:e>dc>d c<A A2|c>AG>A G<E E2|e>dc>d d<A A2|G>DE<G A4:|
|:A2 A>G A2 A2|G>ED>E CDEG|A2 A>G A2 A2|G>DE<G A4:|

